src/assets/icons/sakura/047-origami.svg

<?xml version="1.0" standalone="no"?><!DOCTYPE svg PUBLIC "-//W3C//DTD SVG 1.1//EN" "http://www.w3.org/Graphics/SVG/1.1/DTD/svg11.dtd"><svg t="1624436367465" class="icon" viewBox="0 0 1024 1024" version="1.1" xmlns="http://www.w3.org/2000/svg" p-id="18181" xmlns:xlink="http://www.w3.org/1999/xlink" width="200" height="200"><defs><style type="text/css"></style></defs><path d="M395.801755 314.279404c48.18363-41.030052 116.919372-45.962559 163.149778-2.744402l186.586399 207.447565H265.95567c-40.720998 0-58.893392-51.127887-27.30804-76.828845zM0 761.035976V304.624547c0-30.283203 41.660523-38.555557 53.231517-10.569658l193.064177 466.981087z" fill="#FF8E9E" p-id="18182"></path><path d="M983.682833 718.252555l-231.951453-480.332233-164.398358 307.164974-49.526986-53.460218H282.335549l-33.944467 27.355429-222.943549 181.406648C9.360225 716.472402 0 738.287517 0 761.035976 0 808.407823 38.726567 846.808853 86.096354 846.808853h734.677763v-30.392402L905.036748 846.808853c60.333586-0.995155 108.898382-65.906865 78.646085-128.556298z" fill="#FFB5C0" p-id="18183"></path><path d="M905.036748 846.808853L601.312579 518.968145l-186.586398-207.435203c-46.230406-43.218157-114.964089-38.28359-163.149779 2.746462l-157.154124 127.872258c-31.585352 25.700958-13.412958 76.828845 27.30804 76.828845h350.327501a103.011928 103.011928 0 0 1 75.569964 33.004942L820.774117 846.808853zM669.226237 273.00829l78.946898-79.602093c21.442189-21.61938 56.20462-21.61938 77.646809 0l178.540684 180.022085c51.77072 52.199276-7.868523 137.570382-74.049417 105.999452l-245.743517-117.232547c-34.329755-16.379879-42.196217-62.109618-15.341457-89.186897z" fill="#FFDBE0" p-id="18184"></path></svg>

<svg class="icon" viewBox="0 0 1024 1024" xmlns="http://www.w3.org/2000/svg" width="200" height="200"><path d="M395.802 314.28c48.183-41.03 116.92-45.963 163.15-2.745l186.586 207.448H265.956c-40.721 0-58.894-51.128-27.308-76.83zM0 761.035V304.625c0-30.284 41.66-38.556 53.232-10.57l193.064 466.981z" fill="#FF8E9E"/><path d="M983.683 718.253 751.73 237.92 587.333 545.085l-49.527-53.46h-255.47l-33.945 27.356L25.448 700.387C9.36 716.472 0 738.287 0 761.036c0 47.372 38.727 85.773 86.096 85.773h734.678v-30.393l84.263 30.393c60.333-.995 108.898-65.907 78.646-128.556z" fill="#FFB5C0"/><path d="m905.037 846.809-303.724-327.84-186.587-207.436c-46.23-43.218-114.964-38.284-163.15 2.746L94.422 442.152c-31.585 25.7-13.413 76.829 27.308 76.829h350.328a103.012 103.012 0 0 1 75.57 33.004L820.774 846.81zm-235.81-573.8 78.946-79.603c21.442-21.62 56.205-21.62 77.647 0l178.54 180.022c51.771 52.2-7.868 137.57-74.049 106L684.568 362.195c-34.33-16.38-42.197-62.11-15.342-89.187z" fill="#FFDBE0"/></svg>
